X:1
T:Title
%%score 1 { 2 | 3 }
L:1/8
Q:1/4=113
M:4/4
K:C
V:1 treble nm="Grand Piano, Soprano"
V:2 treble nm="Choir Pad, Dakar, Ward Rockwell"
V:3 bass 
V:1
 [EG]>[EG] [EG]2 [EG]2 [EG]2 | [EG]2 [EG]2 [EG]2 [EG]2 | [EG]2 [FA]2 [FA]2 [FA]2 | %3
w: By~Ward~Rockwell,~1896 * * * *|||
 [FA]2 [EG]4 [EG]2 | [E^G]2 [EA]2 [EA]2 [EA]2 | [EA]2 [Ac]2 [Ac]2 [Ac]2 | [Ac]2 [GB]2 [DB]2 [DA]2 | %7
w: ||||
 [DA]2 [DG]4 G2 | G2 [FG]2 [FA]2 [FB]2 | [Fd]2 [Ed]2 [Ec]2 [Ec]2 | [Ed]2 [^Ge]2 [GB]2 [Ac]2 | %11
w: ||||
 [Bd]2 [Ac]4 [Ac]2 | [Gc]2 [^Fd]2 [FA]2 [FB]2 | [^Fc]2 [=Fc]2 [FB]2 [DA]2 | G2 [Gc]2 [CG]2 [DG]2 | %15
w: ||||
 [DF]2 [B,E]4 [B,E]2 | [B,E]2 D2 [Dc]2 [_EB]2 | [_EA]2 [=EG]2 [Ec]2 E2 | F2 G2 A2 [Gd]2- | %19
w: ||||
 [Gd][Ec] [Ec]6- | [Ec]2 z2 z4 |] %21
w: ||
V:2
 C>C C2 C2 C2 | C2 C2 C2 C2 | C2 C2 C2 C2 | C2 C4 C2 | D2 C2 C2 C2 | C2 E2 E2 E2 | E2 D2 D2 C2 | %7
 C2[K:bass] B,4 B,2 | B,2 B,2 C2 D2 | B,2 B,2 A,2[K:treble] C2 | C2 B,2 E2 E2 | E2 E4 E2 | %12
 E2 D2 D2 D2 | D2 D2 D2[K:bass] B,2 | B,2 C2 C2 A,2 | A,2 ^G,4 G,2 | ^G,2 A,2 A,2 C2 | %17
 C2 C2 C2 E,2 | F,2 G,2 A,2 B,2- | B,G, G,6- | G,2 z2 z4 |] %21
V:3
 C,>C, C,2 C,2 C,2 | C,2 C,2 G,2 E,2 | C,2 F,2 z2 A,2 | F,2 C,4 C,2 | B,,2 A,,2 A,,2 A,,2 | %5
 A,,2 A,,2 C,2 E,2 | A,2 B,2 G,2 ^F,2 | E,2 G,4 G,2 | G,2 G,2 G,2 G,2 | ^G,2 A,2 z2 A,2 | %10
 A,2 E,2 E,2 E,2 | E,2 A,4 A,2 | A,2 D,2 D,2 D,2 | D,2 G,2 G,2 F,2 | F,2 E,2 E,2 E,2 | %15
 E,2 E,4 E,2 | E,2 F,2 F,2 ^F,2 | ^F,2 G,2 =F,2 z2 | z4 z2 G,2- | G,C, C,6- | C,2 z2 z4 |] %21

